svg/emoji_u1f9df_200d_2640.svg

<?xml version="1.0" encoding="UTF-8" standalone="no"?>
<svg
   xmlns:dc="http://purl.org/dc/elements/1.1/"
   xmlns:cc="http://creativecommons.org/ns#"
   xmlns:rdf="http://www.w3.org/1999/02/22-rdf-syntax-ns#"
   xmlns:svg="http://www.w3.org/2000/svg"
   xmlns="http://www.w3.org/2000/svg"
   xmlns:sodipodi="http://sodipodi.sourceforge.net/DTD/sodipodi-0.dtd"
   xmlns:inkscape="http://www.inkscape.org/namespaces/inkscape"
   width="128"
   height="128"
   style="enable-background:new 0 0 128 128;"
   version="1.1"
   id="svg28"
   sodipodi:docname="emoji_u1f9df_200d_2640_fe0f.svg"
   inkscape:version="0.92+devel unknown">
  <metadata
     id="metadata34">
    <rdf:RDF>
      <cc:Work
         rdf:about="">
        <dc:format>image/svg+xml</dc:format>
        <dc:type
           rdf:resource="http://purl.org/dc/dcmitype/StillImage" />
      </cc:Work>
    </rdf:RDF>
  </metadata>
  <defs
     id="defs32" />
  <sodipodi:namedview
     pagecolor="#ffffff"
     bordercolor="#666666"
     inkscape:document-rotation="0"
     borderopacity="1"
     objecttolerance="10"
     gridtolerance="10"
     guidetolerance="10"
     inkscape:pageopacity="0"
     inkscape:pageshadow="2"
     inkscape:window-width="1680"
     inkscape:window-height="986"
     id="namedview30"
     showgrid="false"
     inkscape:zoom="3.8504174"
     inkscape:cx="84.677215"
     inkscape:cy="56.605252"
     inkscape:window-x="0"
     inkscape:window-y="27"
     inkscape:window-maximized="1"
     inkscape:current-layer="svg28" />
  <path
     inkscape:connector-curvature="0"
     id="path2"
     style="fill:#5f4f4f;opacity:1;vector-effect:none;fill-opacity:1;stroke-width:1;stroke-linecap:butt;stroke-linejoin:miter;stroke-miterlimit:4;stroke-dasharray:none;stroke-dashoffset:0;stroke-opacity:1"
     d="m 22,45.39 c 0,0 0,45.8 6.51,68.14 l 72.6,-0.29 C 106,86.55 106,45.06 106,45.06 Z m 22.52,10.66 9.87,2.6 z" />
  <path
     style="vector-effect:none;fill:#5f4f4f;fill-opacity:1;stroke-width:1;stroke-linecap:butt;stroke-linejoin:miter;stroke-miterlimit:4;stroke-dasharray:none;stroke-dashoffset:0;stroke-opacity:1"
     d="M 64 6.609375 C 58.2 6.609375 45.005135 9.7733741 37.685547 15.378906 L 29.71875 11.714844 L 33.953125 17.753906 C 27.947369 23.117126 22 40.654375 22 46.109375 C 22 67.919375 40.8 85.609375 64 85.609375 C 87.2 85.609375 106 67.929375 106 46.109375 C 106 38.035306 103.41852 30.52975 98.996094 24.273438 A 5.7918682 10.023575 22.064938 0 1 98.453125 24.849609 A 5.7918682 10.023575 22.064938 0 1 90.25 23.962891 A 4.8306044 9.0002182 21.852531 0 1 84.644531 22.849609 A 4.8306044 9.0002182 21.852531 0 1 84.201172 20.013672 A 4.6145716 7.9959433 22.148345 0 1 79.925781 18.943359 A 4.6145716 7.9959433 22.148345 0 1 79.183594 16.132812 A 5.7918682 10.023575 22.064938 0 1 74.53125 12.845703 A 5.7918682 10.023575 22.064938 0 1 74.421875 7.8378906 C 71.089322 7.0375982 67.597906 6.609375 64 6.609375 z "
     id="path4" />
  <path
     inkscape:connector-curvature="0"
     style="fill:#606060;opacity:1;vector-effect:none;fill-opacity:1;stroke-width:1;stroke-linecap:butt;stroke-linejoin:miter;stroke-miterlimit:4;stroke-dasharray:none;stroke-dashoffset:0;stroke-opacity:1"
     d="m 20.43,118.09 v 9.89 h 87.14 v -9.89 c 0,-15.17 -21.39,-22.87 -43.24,-22.84 -21.72,0.03 -43.9,6.78 -43.9,22.84 z"
     id="XMLID_51_" />
  <path
     inkscape:connector-curvature="0"
     style="fill:#539d47;opacity:1;vector-effect:none;fill-opacity:1;stroke-width:1;stroke-linecap:butt;stroke-linejoin:miter;stroke-miterlimit:4;stroke-dasharray:none;stroke-dashoffset:0;stroke-opacity:1"
     d="m 63.95,90.25 h -9.08 v 9.59 c 0,4.34 3.7,7.86 8.26,7.86 h 1.65 c 4.56,0 8.26,-3.52 8.26,-7.86 v -9.59 z"
     id="XMLID_50_" />
  <path
     style="fill:#76bf6a;opacity:1;vector-effect:none;fill-opacity:1;stroke-width:1;stroke-linecap:butt;stroke-linejoin:miter;stroke-miterlimit:4;stroke-dasharray:none;stroke-dashoffset:0;stroke-opacity:1"
     d="M 63.890625 13.570312 C 39.540625 13.570312 33.169922 32.440938 33.169922 58.960938 C 33.169922 85.470938 52.060625 93.560547 63.890625 93.560547 C 75.720625 93.560547 94.609375 85.470938 94.609375 58.960938 C 94.609375 44.988782 92.836407 33.140782 87.597656 25.054688 A 4.8306044 9.0002182 21.852531 0 1 84.644531 22.849609 A 4.8306044 9.0002182 21.852531 0 1 84.228516 20.865234 C 84.020414 20.65778 83.801593 20.463006 83.585938 20.263672 A 4.6145716 7.9959433 22.148345 0 1 79.925781 18.943359 A 4.6145716 7.9959433 22.148345 0 1 79.296875 17.130859 C 75.215986 14.825738 70.151516 13.570312 63.890625 13.570312 z "
     id="path9" />
  <path
     style="fill:#5f4f4f;opacity:1;vector-effect:none;fill-opacity:1;stroke-width:1;stroke-linecap:butt;stroke-linejoin:miter;stroke-miterlimit:4;stroke-dasharray:none;stroke-dashoffset:0;stroke-opacity:1"
     d="M 64.119141 7.1601562 C 41.199141 7.1601562 31.650391 26.109375 31.650391 26.109375 L 31.650391 55.779297 C 53.780391 52.009297 69.840313 37.539687 73.070312 34.429688 C 73.370312 34.139688 73.859062 34.239375 74.039062 34.609375 C 81.579062 50.019375 96.599609 55.779297 96.599609 55.779297 L 96.599609 26.589844 C 96.599609 26.589844 96.497217 26.405402 96.474609 26.361328 A 5.7918682 10.023575 22.064938 0 1 90.25 23.962891 A 4.8306044 9.0002182 21.852531 0 1 84.644531 22.849609 A 4.8306044 9.0002182 21.852531 0 1 84.201172 20.013672 A 4.6145716 7.9959433 22.148345 0 1 79.925781 18.943359 A 4.6145716 7.9959433 22.148345 0 1 79.183594 16.132812 A 5.7918682 10.023575 22.064938 0 1 74.53125 12.845703 A 5.7918682 10.023575 22.064938 0 1 74.314453 8.5605469 C 71.261221 7.6892662 67.872082 7.1601562 64.119141 7.1601562 z "
     id="XMLID_49_" />
  <rect
     y="119.54"
     x="89.440002"
     width="3"
     style="opacity:0.54000005"
     height="8.46"
     id="XMLID_47_" />
  <rect
     y="119.54"
     x="35.349998"
     width="3"
     style="opacity:0.54000005"
     height="8.46"
     id="XMLID_46_" />
  <g
     id="g4362"
     transform="translate(-0.64797925,-1.5524678)">
    <path
       style="fill:#ffffff;fill-opacity:1;stroke-width:1"
       inkscape:connector-curvature="0"
       id="path6"
       d="m 51.41261,64.190606 c -2.230449,-0.660276 -3.433442,-3.334487 -2.655783,-5.96146 0.792331,-2.676538 3.207621,-4.279634 5.403176,-3.683596 2.230449,0.660277 3.433442,3.334488 2.655783,5.96146 -0.742766,2.691211 -3.172728,4.343873 -5.403176,3.683596 z"
       class="st1" />
    <path
       style="fill:#ffffff;fill-opacity:1;stroke-width:0.99999994"
       inkscape:connector-curvature="0"
       id="path8"
       d="m 78.781774,64.242556 c 2.261286,-1.4603 2.642467,-4.839575 0.922558,-7.502868 -1.75236,-2.713544 -5.007038,-3.673638 -7.218073,-2.24579 -2.261287,1.4603 -2.642467,4.839576 -0.922558,7.502869 1.75236,2.713544 4.956786,3.706088 7.218073,2.245789 z"
       class="st1" />
    <path
       style="fill:#47423c;fill-opacity:1;stroke-width:1"
       class="st2"
       d="M 75.272175,74.875738 C 74.445108,72.80807 70.25808,69.551493 64.623685,69.448109 v 0 c -0.05169,0 -0.05169,0 -0.103384,0 -0.05169,0 -0.05169,0 -0.103383,0 v 0 c -5.582704,0.103384 -9.71804,3.411653 -10.596799,5.427629 -0.878759,2.067668 -0.103383,3.463344 2.222743,3.463344 2.171052,0 7.702064,0 8.477439,0 v 0 c 0,0 0,0 0.05169,0 0.05169,0 0.05169,0 0.05169,0 v 0 c 0.723683,0 6.254695,0 8.477439,0 2.274434,0 3.04981,-1.395676 2.171051,-3.463344 z"
       id="path12"
       inkscape:connector-curvature="0" />
    <path
       style="fill:#c08198;fill-opacity:1;stroke-width:1"
       class="st3"
       d="m 75.013716,77.770473 c 0,0 0,-0.361842 -0.568608,-0.516917 -0.775376,-0.206767 -1.912593,0.620301 -3.618419,0.568609 -1.705826,-0.05169 -4.031953,-0.465225 -5.531012,-0.465225 -1.705826,-0.05169 -1.757518,0.982142 -1.757518,0.982142 0,0 8.167289,0 9.356198,0 1.188909,0 1.705826,-0.206767 2.119359,-0.568609 z"
       id="path14"
       inkscape:connector-curvature="0" />
    <path
       style="fill:#c08198;fill-opacity:1;stroke-width:1"
       class="st3"
       d="m 66.898119,78.339082 c 2.171052,0.413534 3.101502,1.033834 3.101502,3.670111 0,1.137217 -0.155075,2.532893 0,3.67011 0.206767,1.240601 1.085526,1.49906 1.705827,1.395676 1.499059,-0.258458 0.982142,-2.791351 1.188909,-5.582703 0.155075,-2.11936 1.809209,-2.222743 2.119359,-3.670111 z"
       id="path16"
       inkscape:connector-curvature="0" />
  </g>
  <g
     id="g4366"
     transform="translate(2.8228126,0.02227159)">
    <path
       sodipodi:nodetypes="sssss"
       inkscape:connector-curvature="0"
       id="path4294"
       d="m 43.545178,74.130075 c -1.079624,2.194358 -0.970705,3.294657 -3.087753,3.294657 -2.117048,0 -4.638214,-1.856938 -4.638214,-4.302504 0,-2.445567 4.903685,-4.78564 6.996723,-4.467704 2.88269,0.437888 1.720979,3.45983 0.729244,5.475551 z"
       style="opacity:1;vector-effect:none;fill:#6aac5f;fill-opacity:1;stroke-width:1;stroke-linecap:butt;stroke-linejoin:miter;stroke-miterlimit:4;stroke-dasharray:none;stroke-dashoffset:0;stroke-opacity:1" />
    <path
       sodipodi:nodetypes="sssss"
       inkscape:connector-curvature="0"
       id="path4313"
       d="m 46.635677,78.426247 c 0,1.14382 -0.290999,2.494975 -1.286985,2.494975 -0.995986,0 -2.3198,-1.351155 -2.3198,-2.494975 0,-1.14382 1.333907,-1.99044 2.329893,-1.99044 0.995987,0 1.276892,0.84662 1.276892,1.99044 z"
       style="opacity:1;vector-effect:none;fill:#6aac5f;fill-opacity:1;stroke-width:1;stroke-linecap:butt;stroke-linejoin:miter;stroke-miterlimit:4;stroke-dasharray:none;stroke-dashoffset:0;stroke-opacity:1" />
  </g>
</svg>

<svg xmlns="http://www.w3.org/2000/svg" width="128" height="128"><path d="M22 45.39s0 45.8 6.51 68.14l72.6-.29C106 86.55 106 45.06 106 45.06zm22.52 10.66l9.87 2.6z" fill="#5f4f4f"/><path d="M64 6.61c-5.8 0-18.995 3.163-26.314 8.769l-7.967-3.664 4.234 6.039C27.947 23.117 22 40.654 22 46.109c0 21.81 18.8 39.5 42 39.5s42-17.68 42-39.5c0-8.074-2.581-15.58-7.004-21.836a5.792 10.024 22.065 0 1-.543.577 5.792 10.024 22.065 0 1-8.203-.887 4.83 9 21.853 0 1-5.605-1.113 4.83 9 21.853 0 1-.444-2.836 4.615 7.996 22.148 0 1-4.275-1.07 4.615 7.996 22.148 0 1-.742-2.811 5.792 10.024 22.065 0 1-4.653-3.287 5.792 10.024 22.065 0 1-.11-5.008A44.597 44.597 0 0 0 64 6.609z" fill="#5f4f4f"/><path d="M20.43 118.09v9.89h87.14v-9.89c0-15.17-21.39-22.87-43.24-22.84-21.72.03-43.9 6.78-43.9 22.84z" fill="#606060"/><path d="M63.95 90.25h-9.08v9.59c0 4.34 3.7 7.86 8.26 7.86h1.65c4.56 0 8.26-3.52 8.26-7.86v-9.59z" fill="#539d47"/><path d="M63.89 13.57c-24.35 0-30.72 18.87-30.72 45.39 0 26.51 18.89 34.6 30.72 34.6 11.83 0 30.72-8.09 30.72-34.6 0-13.971-1.774-25.82-7.012-33.905a4.83 9 21.853 0 1-2.953-2.205 4.83 9 21.853 0 1-.416-1.985c-.209-.207-.427-.402-.643-.601a4.615 7.996 22.148 0 1-3.66-1.32 4.615 7.996 22.148 0 1-.63-1.813c-4.08-2.305-9.144-3.56-15.405-3.56z" fill="#76bf6a"/><path d="M64.12 7.16c-22.92 0-32.47 18.95-32.47 18.95v29.67c22.13-3.77 38.19-18.24 41.42-21.35.3-.29.79-.19.97.18C81.58 50.02 96.6 55.78 96.6 55.78V26.59s-.103-.185-.125-.229a5.792 10.024 22.065 0 1-6.225-2.398 4.83 9 21.853 0 1-5.605-1.113 4.83 9 21.853 0 1-.444-2.836 4.615 7.996 22.148 0 1-4.275-1.07 4.615 7.996 22.148 0 1-.742-2.811 5.792 10.024 22.065 0 1-4.653-3.287 5.792 10.024 22.065 0 1-.217-4.285c-3.053-.872-6.442-1.4-10.195-1.4z" fill="#5f4f4f"/><path opacity=".54" d="M89.44 119.54h3V128h-3zM35.35 119.54h3V128h-3z"/><path d="M50.765 62.638c-2.23-.66-3.434-3.334-2.656-5.961.792-2.677 3.207-4.28 5.403-3.684 2.23.66 3.433 3.335 2.656 5.962-.743 2.69-3.173 4.343-5.403 3.683zM78.134 62.69c2.261-1.46 2.642-4.84.922-7.503-1.752-2.713-5.007-3.673-7.218-2.246-2.261 1.46-2.642 4.84-.922 7.503 1.752 2.714 4.957 3.706 7.218 2.246z" class="st1" fill="#fff"/><path class="st2" d="M74.624 73.323c-.827-2.067-5.014-5.324-10.648-5.427h-.207c-5.583.103-9.718 3.411-10.597 5.427-.879 2.068-.103 3.464 2.223 3.464h17.058c2.275 0 3.05-1.396 2.171-3.464z" fill="#47423c"/><path class="st3" d="M74.366 76.218s0-.362-.569-.517c-.775-.207-1.912.62-3.618.569-1.706-.052-4.032-.466-5.531-.466-1.706-.051-1.758.983-1.758.983h9.356c1.19 0 1.706-.207 2.12-.569z" fill="#c08198"/><path class="st3" d="M66.25 76.787c2.171.413 3.102 1.033 3.102 3.67 0 1.137-.155 2.533 0 3.67.206 1.24 1.085 1.499 1.705 1.396 1.5-.259.983-2.792 1.19-5.583.154-2.12 1.809-2.223 2.119-3.67z" fill="#c08198"/><g fill="#6aac5f"><path d="M46.368 74.152c-1.08 2.195-.97 3.295-3.088 3.295-2.117 0-4.638-1.857-4.638-4.303 0-2.445 4.904-4.785 6.997-4.467 2.882.438 1.72 3.46.729 5.475zM49.458 78.449c0 1.143-.29 2.494-1.286 2.494s-2.32-1.35-2.32-2.494c0-1.144 1.334-1.99 2.33-1.99s1.276.846 1.276 1.99z"/></g></svg>
